!!!!SEGMENT: pl-sa--l-1643--061_anonim--adiuro-vos.krn
!!!cenid: 16xx:1419
!!!COM: Anonim
!!!COM-rismid: pe30004985
!!!CDT:
!!!CNT:
!!!OTL: Adiuro vos
!!!PDT:
!!!AGN: Sacred
!!!SMS-siglum: PL-SA
!!!SMS-shelfmark: L 1643
!!!SMS-shelfwork: 061 W
!!!SMS-variant:
!!!SMS-altvar:
!!!NIFC-rismid: 1001063038
!!!URL-scan: http://repozytorium.nifc.pl/skany/pl-sa-nut--l1643
!!!ONB-nifc: UWAGA: 8 ksiąg. Primi chori: 1mus Cantus (x), C 2dus (96-98), C 3tius (x), Bassus (x); Secondi chori: Primus Cantus (x), C 2dus (x), Altus (48-50), Bassus (47-49). UWAGA: Nie dodawać pustych linii, chyba że w rękopisie pojawiają się dodatkowe oznaczenia dotyczące pełnej obsady (a 4, a 8 itp.)
**kern	**text	**kern	**text	**kern	**text
*group2	*	*group2	*	*group1	*
*part3	*part3	*part2	*part2	*part1	*part1
*staff3	*staff3	*staff2	*staff2	*staff1	*staff1
*Iempty	*	*Iempty	*	*Iempty	*
*I"Baſsus 2di Chori.	*	*I"Altus secundi Chori.	*	*I"Cantus 2dus Primi Chori.	*
*I'[Coro 2 B]	*	*I'[Coro 2 A]	*	*I'[Coro 1 C 2]	*
*clefC3	*	*clefC2	*	*clefC1	*
*k[b-]	*	*k[b-]	*	*k[b-]	*
*F:	*	*F:	*	*F:	*
*M2/2	*	*M2/2	*	*M2/2	*
*met(C|)	*	*met(C|)	*	*met(C|)	*
=1-	=1-	=1-	=1-	=1-	=1-
0r	.	0r	.	2r	.
.	.	.	.	1a\	Ad-
=2-	=2-	=2-	=2-	=2-	=2-
.	.	.	.	2a\	-iu-
=3-	=3-	=3-	=3-	=3-	=3-
1r	.	1r	.	1g	-ro
=4-	=4-	=4-	=4-	=4-	=4-
2r	.	2r	.	2a\	vuoſ
1g\	Ad-	1g\	Ad-	2r	.
=5-	=5-	=5-	=5-	=5-	=5-
.	.	.	.	0r	.
!	!	!LO:TX:b:t=P:problem:# below	!	!	!
2d\	-iu-	2f#X\	-iu-	.	.
=6-	=6-	=6-	=6-	=6-	=6-
1e-X	-ro	1g	-ro	.	.
=7-	=7-	=7-	=7-	=7-	=7-
!	!	!LO:TX:b:t=P:problem:# below	!	!	!
2d\	Vos	2f#X\	uos	2r	.
2r	.	2r	.	1cc\	ad-
=8-	=8-	=8-	=8-	=8-	=8-
0r	.	0r	.	.	.
.	.	.	.	2dd\	-iu-
=9-	=9-	=9-	=9-	=9-	=9-
.	.	.	.	1b-	-ro
=10-	=10-	=10-	=10-	=10-	=10-
2r	.	2r	.	2cc\	vuoſ
1f\	ad-	1a\	ad-	2r	.
=11-	=11-	=11-	=11-	=11-	=11-
.	.	.	.	0r	.
2d\	-iu-	2a\	-iu-	.	.
=12-	=12-	=12-	=12-	=12-	=12-
1g	-ro	1g	-ro	.	.
=13-	=13-	=13-	=13-	=13-	=13-
!	!	!LO:TX:a:t=P:problem:rytm	!	!	!
!	!	!LO:N:vis=1	!	!	!
2f\	Vos	2a\	uos	2r	.
2r	.	2r	.	2.b-\	fi-
=14-	=14-	=14-	=14-	=14-	=14-
0r	.	0r	.	.	.
.	.	.	.	4b-\	-li-
.	.	.	.	2b-\	-e
=15-	=15-	=15-	=15-	=15-	=15-
.	.	.	.	2a\	ie-
.	.	.	.	2.b-\	-ru-
=16-	=16-	=16-	=16-	=16-	=16-
1r	.	1r	.	.	.
!	!	!	!	!LO:TX:a:t=P:problem:niewidoczna belka	!
!	!	!	!	!LO:N:vis=4	!
.	.	.	.	8a\	ſa
!	!	!	!	!LO:N:vis=4	!
.	.	.	.	8g\	.
.	.	.	.	2a\	-lem
=17-	=17-	=17-	=17-	=17-	=17-
2r	.	2r	.	2b-\	.
2.B-/	fi-	2.fny\	fi-	2r	.
=18-	=18-	=18-	=18-	=18-	=18-
.	.	.	.	0r	.
4B-/	-li-	4f\	-li-	.	.
2B-/	-ae	2f\	-e	.	.
=19-	=19-	=19-	=19-	=19-	=19-
2f\	Je-	2a\	Ie-	.	.
2g\	-ru-	2g\	-ru-	.	.
=20-	=20-	=20-	=20-	=20-	=20-
1f	-sa-	1a	-sa-	1r	.
=21-	=21-	=21-	=21-	=21-	=21-
2B-/	-lem	2f\	-lem	2r	.
2r	.	2r	.	2.cc\	fi-
=22-	=22-	=22-	=22-	=22-	=22-
0r	.	0r	.	.	.
.	.	.	.	4cc\	-li-
.	.	.	.	2dd\	-e
!	!	!	!	!LO:SIC:v:t=custos b-	!
!	!	!	!	!LO:LB:g=original	!
=23-	=23-	=23-	=23-	=23-	=23-
.	.	.	.	2b-\	ie-
.	.	.	.	2b-\	-ru-
=24-	=24-	=24-	=24-	=24-	=24-
1r	.	1r	.	1cc	ſa
=25-	=25-	=25-	=25-	=25-	=25-
2r	.	2r	.	2b-\	-lem
!	!	!LO:SIC:v:t=custos a	!	!	!
!	!	!LO:LB:g=original	!	!	!
2.f\	fi-	2.a\	fi-	2r	.
=26-	=26-	=26-	=26-	=26-	=26-
.	.	.	.	0r	.
4f\	-li-	4a\	-li-	.	.
!LO:SIC:v:t=custos d	!	!	!	!	!
!LO:LB:g=original	!	!	!	!	!
2d\	-ae	2a\	-e	.	.
=27-	=27-	=27-	=27-	=27-	=27-
2e-X\	Je-	2g\	Ie-	.	.
2B-/	-ru-	2f\	-ru-	.	.
=28-	=28-	=28-	=28-	=28-	=28-
1f	-sa-	1a	-sa-	1r	.
=29-	=29-	=29-	=29-	=29-	=29-
2B-/	-lem	2f\	-lem	2r	.
2r	.	2r	.	2a\	ſi
=30-	=30-	=30-	=30-	=30-	=30-
00r	.	00r	.	2g/	in-
.	.	.	.	2cc\	-ve-
=31-	=31-	=31-	=31-	=31-	=31-
.	.	.	.	2.b-\	-ne-
.	.	.	.	4b-\	-ri-
=32-	=32-	=32-	=32-	=32-	=32-
.	.	.	.	2cc\	tiſ
.	.	.	.	2cc\	di-
=33-	=33-	=33-	=33-	=33-	=33-
.	.	.	.	2cc\	-lec-
.	.	.	.	2dd\	-tum
=34-	=34-	=34-	=34-	=34-	=34-
1r	.	1r	.	1cc	me-
=35-	=35-	=35-	=35-	=35-	=35-
2r	.	2r	.	2b-\	-um
4G/	nun-	4g\	nun-	2r	.
4A/	-ci-	4f\	.	.	.
=36-	=36-	=36-	=36-	=36-	=36-
2B-/	-e-	4e\	-ci-	0r	.
.	.	4e\	-e-	.	.
2G/	-tis	2.g\	-tis	.	.
=37-	=37-	=37-	=37-	=37-	=37-
1d	e-	.	.	.	.
.	.	8f\L	e-	.	.
.	.	8e\J	.	.	.
!	!	!LO:TX:b:t=P:problem:# below	!	!	!
.	.	2f#X\	-i	.	.
=38-	=38-	=38-	=38-	=38-	=38-
2G/	-i	2g\	.	2r	.
2r	.	2r	.	4dd\	nun-
.	.	.	.	4cc\	-ci-
=39-	=39-	=39-	=39-	=39-	=39-
0r	.	0r	.	2b-\	-e-
.	.	.	.	2.b-\	tiſ
=40-	=40-	=40-	=40-	=40-	=40-
.	.	.	.	8a\L	.
.	.	.	.	8g\J	.
.	.	.	.	2a\	e-
=41-	=41-	=41-	=41-	=41-	=41-
2r	.	2r	.	2b-\	-i
4B-/	nun-	4fny\	nun-	2r	.
4c\	-ci-	4e/	-ci-	.	.
=42-	=42-	=42-	=42-	=42-	=42-
2d\	-e-	2d/	-e-	0r	.
2B-/	-tis	2f\	-tis	.	.
=43-	=43-	=43-	=43-	=43-	=43-
1f	e-	1f	e-	.	.
!	!	!LO:SIC:v:t=custos f	!	!	!
!	!	!LO:LB:g=original	!	!	!
=44-	=44-	=44-	=44-	=44-	=44-
2B-/	-i	2f\	-i	2r	.
!	!	!	!	!LO:SIC:v:t=custos dd	!
!	!	!	!	!LO:LB:g=original	!
4B-/	nun-	4f\	nun-	4dd\	nun-
4B-/	-ci-	4f\	-ci-	4dd\	-ci-
=45-	=45-	=45-	=45-	=45-	=45-
2e-X\	-e-	2g\	-e-	2b-\	-e-
2B-/	-tis	2d/	-tis	2b-,>\	tiſ
=46-	=46-	=46-	=46-	=46-	=46-
1F	e-	1f	.	4cc\	nun-
.	.	.	.	4f/	-ci-
.	.	.	.	2.b-\	-e-
=47-	=47-	=47-	=47-	=47-	=47-
1ryy	.	2c/	e-	.	.
.	.	.	.	8a\L	tiſ
.	.	.	.	8g\J	.
.	.	2f\	-i	2a\	e-
=48-	=48-	=48-	=48-	=48-	=48-
0B-;;	-i	0d;;	.	0b-;;	-i;
!LO:LB:g=original	!	!	!	!	!
=49||-	=49||-	=49||-	=49||-	=49||-	=49||-
0r	.	0r	.	0b-	Qui-
=50-	=50-	=50-	=50-	=50-	=50-
2r	.	1r	.	2a\	-a
1F/	Qui-	.	.	2r	.
=51-	=51-	=51-	=51-	=51-	=51-
.	.	1f	Qui-	1r	.
4G/	-a	.	.	.	.
4F/	.	.	.	.	.
=52-	=52-	=52-	=52-	=52-	=52-
2B-/	.	2f\	-a	2r	.
2r	.	2r	.	2a\	a-
=53-	=53-	=53-	=53-	=53-	=53-
0r	.	0r	.	1a	-mo-
=54-	=54-	=54-	=54-	=54-	=54-
.	.	.	.	4f/	-re
.	.	.	.	4f/	lan-
.	.	.	.	2g/	-gue-
=55-	=55-	=55-	=55-	=55-	=55-
2r	.	2r	.	2a\	-o
2B-/	a-	2a\	a-	2r	.
=56-	=56-	=56-	=56-	=56-	=56-
1B-	-mo-	1f	-mo-	0r	.
=57-	=57-	=57-	=57-	=57-	=57-
4F/	-re	4f\	-re	.	.
4G/	lan-	4f\	lan-	.	.
2d\	-gue-	2e/	-ge-	.	.
=58-	=58-	=58-	=58-	=58-	=58-
2G/	-o	2f\	-o	2r	.
2r	.	2r	.	2b-\	a-
=59-	=59-	=59-	=59-	=59-	=59-
0r	.	0r	.	1b-	-mo-
=60-	=60-	=60-	=60-	=60-	=60-
.	.	.	.	4a\	-re
.	.	.	.	4g/	lan-
!	!	!	!	!LO:TX:b:t=P:problem:# below	!
.	.	.	.	2f#X/	-gue-
=61-	=61-	=61-	=61-	=61-	=61-
2r	.	2r	.	2g/	-o
2B-/	a-	2f\	a-	2r	.
!	!	!	!	!LO:SIC:v:t=custos dd	!
=62-	=62-	=62-	=62-	=62-	=62-
1B-	-mo-	1f	-mo-	0r	.
!	!	!LO:SIC:v:t=custos f	!	!	!
!	!	!LO:LB:g=original	!	!	!
=63-	=63-	=63-	=63-	=63-	=63-
4e-X\	-re	4f\	-re	.	.
4B-/	lan-	4d/	lan-	.	.
2F/	-gue-	2d/	-ge-	.	.
=64-	=64-	=64-	=64-	=64-	=64-
2B-/	-o	2d/	-o	2r	.
2r	.	2r	.	2dd\	a-
=65-	=65-	=65-	=65-	=65-	=65-
0r	.	0r	.	1dd	-mo-
=66-	=66-	=66-	=66-	=66-	=66-
.	.	.	.	4b-\	-re
.	.	.	.	4b-\	lan-
.	.	.	.	2a\	-gue-
=67-	=67-	=67-	=67-	=67-	=67-
2r	.	2r	.	2b-,>\	-o
2f\	a-	2f\	a-	2cc\	a-
=68-	=68-	=68-	=68-	=68-	=68-
1.c	-mo-	1g	-mo-	1.ee-X	-mo-
=69-	=69-	=69-	=69-	=69-	=69-
.	.	1.g	-re	.	.
2g\	-re	.	.	2b-\	-re
=70-	=70-	=70-	=70-	=70-	=70-
1.c	lan-	.	.	1.cc	lan-
.	.	2c/	lan-	.	.
=71-	=71-	=71-	=71-	=71-	=71-
.	.	0g;;	-geo-	.	.
2c\	-gue-	.	.	2cc\	-gue-
=72-	=72-	=72-	=72-	=72-	=72-
!	!	!	!	!LO:N:acc=#	!
0g;;	-o	.	.	0bn;;	-o;
!LO:LB:g=original	!	!	!	!	!
=73-	=73-	=73-	=73-	=73-	=73-
!	!	!LO:TX:a:t=P:problem:brak pauzy?	!	!	!
.	.	1ryy	.	.	.
=74||-	=74||-	=74||-	=74||-	=74||-	=74||-
*	*	*M2/2	*	*	*
*	*	*met(C|)	*	*	*
00r	.	00r	.	2.b-\	Qua-
.	.	.	.	4b-\	liſ
=75-	=75-	=75-	=75-	=75-	=75-
.	.	.	.	2b-\	eſt
.	.	.	.	2dd\	di-
=76-	=76-	=76-	=76-	=76-	=76-
.	.	.	.	2cc\	-lek-
.	.	.	.	2b-\	tuſ
=77-	=77-	=77-	=77-	=77-	=77-
.	.	.	.	2g/	tu-
.	.	.	.	2b-\	uſ
=78-	=78-	=78-	=78-	=78-	=78-
0r	.	0r	.	2a\	ex
.	.	.	.	2dd\	di-
=79-	=79-	=79-	=79-	=79-	=79-
.	.	.	.	1cc	-lek-
=80-	=80-	=80-	=80-	=80-	=80-
1r	.	1r	.	1b-	-to
!	!	!	!	!LO:SIC:v:t=custos b-	!
!	!	!	!	!LO:LB:g=original	!
=81-	=81-	=81-	=81-	=81-	=81-
2g\	O	2f\	O	0r	.
2f\	pul-	2a\	Pul-	.	.
=82-	=82-	=82-	=82-	=82-	=82-
2.B-/	cher-	2.f\	-che-	.	.
4B-/	-ri-	4f\	-ri-	.	.
=83-	=83-	=83-	=83-	=83-	=83-
1B-	-ma	1f	-ma	1r	.
=84-	=84-	=84-	=84-	=84-	=84-
0r	.	0r	.	2b-\	O
.	.	.	.	2cc\	pul-
=85-	=85-	=85-	=85-	=85-	=85-
.	.	.	.	2.dd\	-che-
.	.	.	.	4dd\	-ri-
=86-	=86-	=86-	=86-	=86-	=86-
1r	.	1r	.	1dd	-ma
=87-	=87-	=87-	=87-	=87-	=87-
2g\	O	2g\	O	0r	.
2f\	pul-	2a\	Pul-	.	.
=88-	=88-	=88-	=88-	=88-	=88-
2.B-/	-cher-	2.f\	-cher-	.	.
4B-/	-ri-	4f\	-ri-	.	.
!	!	!LO:SIC:v:t=custos f	!	!	!
!	!	!LO:LB:g=original	!	!	!
=89-	=89-	=89-	=89-	=89-	=89-
1B-	-ma	1f	-ma	1r	.
=90-	=90-	=90-	=90-	=90-	=90-
00r	.	00r	.	2b-\	O
.	.	.	.	2cc\	pul-
=91-	=91-	=91-	=91-	=91-	=91-
.	.	.	.	2.dd\	-cher-
.	.	.	.	4dd\	-ri-
=92-	=92-	=92-	=92-	=92-	=92-
.	.	.	.	1dd	-ma
=93-	=93-	=93-	=93-	=93-	=93-
.	.	.	.	2b-\	mu-
.	.	.	.	2.b-\	-li-
=94-	=94-	=94-	=94-	=94-	=94-
0r	.	0r	.	.	.
.	.	.	.	8a\L	.
.	.	.	.	8g\J	.
.	.	.	.	2a\	-e-
=95-	=95-	=95-	=95-	=95-	=95-
.	.	.	.	1b-	-rum.
=96||-	=96||-	=96||-	=96||-	=96||-	=96||-
*M3/2	*	*M3/2	*	*M3/2	*
1g	qui-	1d	qui-	1b-	qui-
2c/	-a	2g\	-a	2g/	-a
=97-	=97-	=97-	=97-	=97-	=97-
1g	sic	1d	sic	1g	ſik
2d\	ad-	2d/	ad-	2a\	ad-
=98-	=98-	=98-	=98-	=98-	=98-
1G	-iu-	1g	-iu-	1b-	-iu-
2B-/	-ra-	2d/	-ra-	2b-\	-ra-
=99||-	=99||-	=99||-	=99||-	=99||-	=99||-
*M2/2	*	*M2/2	*	*M2/2	*
*met(C|)	*	*met(C|)	*	*met(C|)	*
1f	-ſti	1f	-ſti	1a	-ſti
=100-	=100-	=100-	=100-	=100-	=100-
0B-;;	nos	0d	nos;	0b-;;	-noſ,
!	!	!	!	!LO:SIC:v:t=custos b-	!
!LO:LB:g=original	!	!	!	!LO:LB:g=original	!
=101||-	=101||-	=101||-	=101||-	=101||-	=101||-
00r	.	00r	.	1b-	Di-
=102-	=102-	=102-	=102-	=102-	=102-
.	.	.	.	2cc\	-lek-
.	.	.	.	2dd\	-tuſ
=103-	=103-	=103-	=103-	=103-	=103-
.	.	.	.	1a	me-
=104-	=104-	=104-	=104-	=104-	=104-
.	.	.	.	1b-	-uſ
=105-	=105-	=105-	=105-	=105-	=105-
4.B-/	Can-	4.f\	Can-	0r	.
8B-/	-di-	8f\	-di-	.	.
4B-/	-dus	4f\	-dus	.	.
4B-/	et	4f\	ex	.	.
=106-	=106-	=106-	=106-	=106-	=106-
4F/	ru-	4f\	ru-	.	.
4G/	-bi-	4d/	-bi-	.	.
2d\	-cun-	2d/	-cun-	.	.
=107-	=107-	=107-	=107-	=107-	=107-
2G/	-dus	2d/	-dus,	2r	.
2r	.	2r	.	2dd\	di-
=108-	=108-	=108-	=108-	=108-	=108-
0r	.	0r	.	2ee-X\	-lek-
.	.	.	.	2b-\	-tuſ
=109-	=109-	=109-	=109-	=109-	=109-
.	.	.	.	1cc	me-
=110-	=110-	=110-	=110-	=110-	=110-
1r	.	1r	.	1dd	-uſ
=111-	=111-	=111-	=111-	=111-	=111-
4.B-/	can-	4.b-\	can-	00r	.
8B-/	-di-	8b-\	-didus	.	.
!	!	!LO:SIC:v:t=custos b-	!	!	!
!	!	!LO:PB:g=original	!	!	!
4B-/	-dus	4b-\	ex	.	.
4B-/	et	4b-\	ru-	.	.
=112-	=112-	=112-	=112-	=112-	=112-
4e-X\	ru-	4g\	-bi-	.	.
4B-/	-bi-	4f\	-cun-	.	.
2f\	-cun-	2f\	-dus	.	.
=113-	=113-	=113-	=113-	=113-	=113-
2B-/	-dus	2f\	di-	.	.
2G/	di-	2g\	-lec-	.	.
=114-	=114-	=114-	=114-	=114-	=114-
2c/	-lec-	2g\	-tus	.	.
!LO:N:acc=#	!`	!	!	!	!
!LO:TX:b:t=P:problem:# below	!	!	!	!	!
2Bn/	-tus	2g\	.	.	.
=115-	=115-	=115-	=115-	=115-	=115-
1c	me-	1g	me-	1r	.
=116-	=116-	=116-	=116-	=116-	=116-
2G/	-us	2g\	-us	2r	.
2r	.	2r	.	4.b-\	Can-
.	.	.	.	8b-\	-di-
=117-	=117-	=117-	=117-	=117-	=117-
0r	.	0r	.	4b-\	-duſ
.	.	.	.	4b-\	et
.	.	.	.	4a\	ru-
.	.	.	.	4g/	-bi-
=118-	=118-	=118-	=118-	=118-	=118-
.	.	.	.	1fny	-kun-
=119-	=119-	=119-	=119-	=119-	=119-
2r	.	2r	.	2g/	-duſ
2g\	di-	2g\	di-	2r	.
=120-	=120-	=120-	=120-	=120-	=120-
2c/	-lec-	2g\	-le-	0r	.
!LO:N:acc=#	!`	!	!	!	!
!LO:TX:b:t=P:problem:# below	!	!	!	!	!
2Bn/	-tus	2g\	-ctus	.	.
!LO:PB:g=original	!	!	!	!	!
=121-	=121-	=121-	=121-	=121-	=121-
4c/	me-	1g	me-	.	.
4d\	.	.	.	.	.
4eny\	-us	.	.	.	.
4f\	.	.	.	.	.
=122-	=122-	=122-	=122-	=122-	=122-
2g\	.	2g\	-us	2r	.
2ryy	.	2r	.	4.dd\	kan-
.	.	.	.	8dd\	-di-
=123-	=123-	=123-	=123-	=123-	=123-
0r	.	0r	.	4dd\	-duſ
.	.	.	.	4dd\	et
.	.	.	.	4b-X\	ru-
!	!	!	!	!LO:SIC:v:l:t=custos słowny kun	!
.	.	.	.	4b-\	-bi-
!	!	!	!	!LO:SIC:v:t=custos a	!
!	!	!	!	!LO:PB:g=original	!
=124-	=124-	=124-	=124-	=124-	=124-
.	.	.	.	1a	-kun-
=125-	=125-	=125-	=125-	=125-	=125-
2r	.	2r	.	2b-,>\	-duſ
2.B-y/	can-	2.d/	can-	2.b-\	kan-
=126-	=126-	=126-	=126-	=126-	=126-
.	.	.	.	.	.
4B-/	-di-	4f\	-di-	4b-\	-di-
2B-/	-dus	2d/	-dus	2b-\	-duſ
=127-	=127-	=127-	=127-	=127-	=127-
0r	.	0r	.	0r	.
=128-	=128-	=128-	=128-	=128-	=128-
1r	.	1r	.	1r	.
=129-	=129-	=129-	=129-	=129-	=129-
2r	.	2r	.	2r	.
!	!	!LO:SIC:v:t=custos d	!	!	!
!	!	!LO:LB:g=original	!	!	!
2.B-/	can-	2.d/	Can-	2.dd\	kan-
=130-	=130-	=130-	=130-	=130-	=130-
.	.	.	.	.	.
4B-/	-di-	4f\	-di-	4dd\	-di-
2B-/	-dus	2d/	-dus	2dd\	-duſ
=131-	=131-	=131-	=131-	=131-	=131-
0r	.	0r	.	0r	.
=132-	=132-	=132-	=132-	=132-	=132-
1r	.	1r	.	1r	.
=133-	=133-	=133-	=133-	=133-	=133-
2r	.	2r	.	2r	.
2B-/	et	2d/	ex	2dd\	et
=134-	=134-	=134-	=134-	=134-	=134-
2F/	ru-	2f\	ru-	2cc\	ru-
2B-/	-bi-	2d/	-bi-	2b-\	-bi-
=135-	=135-	=135-	=135-	=135-	=135-
1f	-cun-	1f	-cun-	1cc	-kun-
=136-	=136-	=136-	=136-	=136-	=136-
2B-/	-dus	2f\	-dus	2b-\	-duſ
2r	.	2r	.	2r	.
=137-	=137-	=137-	=137-	=137-	=137-
1r	.	1r	.	1r	.
=138-	=138-	=138-	=138-	=138-	=138-
2r	.	2r	.	2r	.
2B-/	ex	2d/	ex	2b-\	ex
=139-	=139-	=139-	=139-	=139-	=139-
2.F/	mi-	2.f\	mi-	2.cc\	mi-
4F/	-li-	4f\	-li-	4cc\	-li-
=140-	=140-	=140-	=140-	=140-	=140-
2B-/	-bus	2d/	-bus	2b-\	-bus
2r	.	2r	.	2r	.
=141-	=141-	=141-	=141-	=141-	=141-
1r	.	1r	.	1r	.
=142-	=142-	=142-	=142-	=142-	=142-
2r	.	2r	.	2r	.
2g\	ex	2g\	ex	2dd\	ex
!LO:SIC:v:t=custos c	!	!	!	!	!
!LO:LB:g=original	!	!	!	!	!
=143-	=143-	=143-	=143-	=143-	=143-
2.c/	mil-	2.g\	mi-	2.cc\	mi-
4c/	-li-	4g\	-li-	4cc\	-li-
=144-	=144-	=144-	=144-	=144-	=144-
2g\	-bus	2d/	-bus	2dd\	-buſ
2B-/	e-	2f\	e-	2dd\	e-
=145-	=145-	=145-	=145-	=145-	=145-
1B-	-le-	1f	-le-	1b-	-le-
!	!	!LO:SIC:v:t=custos f	!	!LO:SIC:v:t=custos cc	!
!	!	!LO:LB:g=original	!	!LO:LB:g=original	!
=146-	=146-	=146-	=146-	=146-	=146-
2f\	-ctus	2f\	-ctus	2cc\	-ktuſ
2f\	ex	2f\	ex	2a\	ex
=147-	=147-	=147-	=147-	=147-	=147-
1.c	mil-	1.g	mi-	1.cc	mi-
=148-	=148-	=148-	=148-	=148-	=148-
.	.	.	.	.	.
2c/	-li-	2g\	-li-	2cc\	-li-
=149-	=149-	=149-	=149-	=149-	=149-
!	!	!	!	!LO:N:acc=#	!
0g;;	-bus	0d;;	-bus	0bn;;	-buſ;
=150-	=150-	=150-	=150-	=150-	=150-
.	.	.	.	.	.
=151||-	=151||-	=151||-	=151||-	=151||-	=151||-
00r	.	00r	.	2.b-y\	Qua-
.	.	.	.	4b-\	-liſ
=152-	=152-	=152-	=152-	=152-	=152-
.	.	.	.	2a\	-eſt
.	.	.	.	2a\	di-
=153-	=153-	=153-	=153-	=153-	=153-
.	.	.	.	2cc\	-lek-
.	.	.	.	2dd\	-tuſ
=154-	=154-	=154-	=154-	=154-	=154-
.	.	.	.	2g/	tu-
.	.	.	.	2b-\	-uſ
=155-	=155-	=155-	=155-	=155-	=155-
0r	.	0r	.	2cc\	ex
.	.	.	.	2dd\	di-
=156-	=156-	=156-	=156-	=156-	=156-
.	.	.	.	2.b-\	-lek-
.	.	.	.	4cc\	-to:
=157-	=157-	=157-	=157-	=157-	=157-
1r	.	1r	.	1dd	.
=158-	=158-	=158-	=158-	=158-	=158-
2g\	O	2g\	O	0r	.
2f\	pul-	2a\	Pul-	.	.
=159-	=159-	=159-	=159-	=159-	=159-
2.B-/	-cher-	2.f\	-che-	.	.
4B-/	-ri-	4f\	-ri-	.	.
=160-	=160-	=160-	=160-	=160-	=160-
1B-	-ma	1f	-ma	1r	.
=161-	=161-	=161-	=161-	=161-	=161-
0r	.	0r	.	2b-\	O
.	.	.	.	2cc\	pul-
=162-	=162-	=162-	=162-	=162-	=162-
.	.	.	.	2.dd\	-cher-
.	.	.	.	4dd\	-ri-
=163-	=163-	=163-	=163-	=163-	=163-
1r	.	1r	.	1dd	-ma
=164-	=164-	=164-	=164-	=164-	=164-
2g\	O	2g\	O	0r	.
2f\	pul-	2a\	pul-	.	.
=165-	=165-	=165-	=165-	=165-	=165-
2.B-/	-cher-	2.f\	-che-	.	.
!LO:TX:a:t=P:problem:rytm	!	!	!	!	!
!LO:N:vis=2	!	!	!	!	!
4B-/	-ri-	4f\	-ri-	.	.
=166-	=166-	=166-	=166-	=166-	=166-
1B-	-ma	1f	-ma	1r	.
=167-	=167-	=167-	=167-	=167-	=167-
00r	.	00r	.	2b-\	O
!	!	!	!	!LO:SIC:v:t=custos cc	!
!	!	!	!	!LO:LB:g=original	!
.	.	.	.	2cc\	pul-
=168-	=168-	=168-	=168-	=168-	=168-
.	.	.	.	2.dd\	-cher-
.	.	.	.	4dd\	-ri-
=169-	=169-	=169-	=169-	=169-	=169-
.	.	.	.	1dd	-ma
=170-	=170-	=170-	=170-	=170-	=170-
.	.	.	.	2b-\	mu-
.	.	.	.	2.b-\	-li-
=171-	=171-	=171-	=171-	=171-	=171-
0r	.	0r	.	.	.
!	!	!	!	!LO:TX:t=P:problem:niewidoczna belka	!
!	!	!	!	!LO:N:vis=4	!
.	.	.	.	8a\L	.
!	!	!	!	!LO:N:vis=4	!
.	.	.	.	8g\J	.
.	.	.	.	2a\	-e-
=172-	=172-	=172-	=172-	=172-	=172-
.	.	.	.	1b-	-rum
!LO:SIC:v:t=custos g	!	!LO:SIC:v:t=custos d	!	!	!
!LO:LB:g=original	!	!LO:LB:g=original	!	!	!
=173||-	=173||-	=173||-	=173||-	=173||-	=173||-
*M3/2	*	*M3/2	*	*M3/2	*
1g	qui-	1d	qui-	1b-	Qui-
2c/	-a	2g\	-a	2g/	-a
=174-	=174-	=174-	=174-	=174-	=174-
1g	sic	1d	sic	1g	-ſik
2d\	ad-	2d/	ad-	2a\	ad-
=175-	=175-	=175-	=175-	=175-	=175-
1G	-iu-	1g	-iu-	1b-	-iu-
2B-/	-ra-	2d/	-raſ-	2b-\	-raſ-
=176||-	=176||-	=176||-	=176||-	=176||-	=176||-
*M2/2	*	*M2/2	*	*M2/2	*
*met(C|)	*	*met(C|)	*	*met(C|)	*
1f	-sti	1f	-ti	1a	-ti
=177-	=177-	=177-	=177-	=177-	=177-
0B-;;	nos	0d;;	nos	0b-;;	-noſ;.
=178-	=178-	=178-	=178-	=178-	=178-
.	.	.	.	.	.
=179||-	=179||-	=179||-	=179||-	=179||-	=179||-
*M2/2	*	*M2/2	*	*M2/2	*
*met(C|)	*	*met(C|)	*	*met(C|)	*
0r	.	0r	.	2g/	Ca-
.	.	.	.	4g/	-put
.	.	.	.	4a\	.
=180-	=180-	=180-	=180-	=180-	=180-
.	.	.	.	1b-	e-
=181-	=181-	=181-	=181-	=181-	=181-
1r	.	1r	.	1b-	-iuſ,
=182-	=182-	=182-	=182-	=182-	=182-
2G/	Ca-	2d/	Ca-	0r	.
2c/	-put	2e\	-put	.	.
=183-	=183-	=183-	=183-	=183-	=183-
1B-	e-	1f	e-	.	.
=184-	=184-	=184-	=184-	=184-	=184-
1B-	-ius	1f	-ius	1r	.
=185-	=185-	=185-	=185-	=185-	=185-
0r	.	0r	.	2b-\	ka-
!	!	!	!	!LO:SIC:v:t=custos b-	!
!	!	!	!	!LO:LB:g=original	!
.	.	.	.	2b-\	-put
=186-	=186-	=186-	=186-	=186-	=186-
.	.	.	.	1cc	e-
=187-	=187-	=187-	=187-	=187-	=187-
1r	.	1r	.	1dd	-ius
=188-	=188-	=188-	=188-	=188-	=188-
2B-/	ca-	2f\	ca-	0r	.
2G/	-put	2g\	-put	.	.
=189-	=189-	=189-	=189-	=189-	=189-
1F	e-	1a	e-	.	.
=190-	=190-	=190-	=190-	=190-	=190-
1B-	-ius	1b-	-ius	1r	.
=191-	=191-	=191-	=191-	=191-	=191-
0r	.	0r	.	2b-\	au-
.	.	.	.	2cc\	-rum
=192-	=192-	=192-	=192-	=192-	=192-
.	.	.	.	2b-\	op-
.	.	.	.	2b-\	-ti-
=193-	=193-	=193-	=193-	=193-	=193-
1r	.	1r	.	1a	-mum
!	!	!LO:SIC:v:t=custos f	!	!	!
!	!	!LO:LB:g=original	!	!	!
=194-	=194-	=194-	=194-	=194-	=194-
2B-/	au-	2f\	au-	0r	.
2A/	-rum	2f\	-rum	.	.
!LO:SIC:v:t=custos B-	!	!	!	!	!
!LO:LB:g=original	!	!	!	!	!
=195-	=195-	=195-	=195-	=195-	=195-
2B-/	op-	2d/	op-	.	.
2G/	-ti-	2e\	-ti-	.	.
=196-	=196-	=196-	=196-	=196-	=196-
1F	-mum	1f	-mum	1r	.
=197-	=197-	=197-	=197-	=197-	=197-
0r	.	0r	.	2dd\	au-
.	.	.	.	2dd\	-rum
=198-	=198-	=198-	=198-	=198-	=198-
.	.	.	.	2cc\	op-
.	.	.	.	2cc\	-ti-
=199-	=199-	=199-	=199-	=199-	=199-
1r	.	1r	.	1b-	-mum
=200-	=200-	=200-	=200-	=200-	=200-
2B-/	au-	2b-\	au-	0r	.
2B-/	-rum	2b-\	-rum	.	.
=201-	=201-	=201-	=201-	=201-	=201-
2c/	op-	2g\	op-	.	.
2F/	-ti-	2f\	-ti-	.	.
=202-	=202-	=202-	=202-	=202-	=202-
1B-	-mum	1f	-mum	1r	.
=203||-	=203||-	=203||-	=203||-	=203||-	=203||-
*M3/2	*	*M3/2	*	*M3/2	*
0.r	.	0.r	.	1b-	Co-
.	.	.	.	2cc\	-me
=204-	=204-	=204-	=204-	=204-	=204-
.	.	.	.	1g	e-
.	.	.	.	2a\	-iuſ
=205-	=205-	=205-	=205-	=205-	=205-
1B-	Si-	1f	Si-	0.r	.
2F/	-cut	2a\	-cud	.	.
=206-	=206-	=206-	=206-	=206-	=206-
2G/	e-	2g\	e-	.	.
2G/	-la-	2g\	-la-	.	.
!	!	!LO:TX:b:t=P:problem:# below	!	!	!
2d\	-tae	2f#X\	-te	.	.
=207-	=207-	=207-	=207-	=207-	=207-
0.r	.	0.r	.	1cc	Si-
.	.	.	.	2cc\	-kut
=208-	=208-	=208-	=208-	=208-	=208-
.	.	.	.	2a\	e-
.	.	.	.	2b-\	-la-
.	.	.	.	2cc\	-te
!	!	!	!	!LO:SIC:v:t=custos b-	!
!	!	!	!	!LO:LB:g=original	!
=209-	=209-	=209-	=209-	=209-	=209-
1f	Si-	1a	si-	0.r	.
2c/	-cut	2g\	-cut	.	.
!	!	!LO:SIC:v:t=custos f	!	!	!
!	!	!LO:LB:g=original	!	!	!
=210-	=210-	=210-	=210-	=210-	=210-
2d\	e-	2fny\	e-	.	.
2B-/	-la-	2g\	-la-	.	.
2A/	-tae	2a\	-te	.	.
=211-	=211-	=211-	=211-	=211-	=211-
0.r	.	0.r	.	1b-	-ſi-
.	.	.	.	2a\	-kut
=212-	=212-	=212-	=212-	=212-	=212-
.	.	.	.	2g/	e-
.	.	.	.	2g/	-la-
.	.	.	.	2a\	-te
=213-	=213-	=213-	=213-	=213-	=213-
1B-	Si-	1f	Si-	0.r	.
2F/	-cut	2f\	-cut	.	.
!LO:SIC:v:t=custos G	!	!	!	!	!
!LO:LB:g=original	!	!	!	!	!
=214-	=214-	=214-	=214-	=214-	=214-
2G/	e-	2d/	e-	.	.
2G/	-la-	2g\	-la-	.	.
!	!	!LO:TX:b:t=P:problem:# below	!	!	!
2d\	-tae	2f#X\	-te	.	.
=215-	=215-	=215-	=215-	=215-	=215-
0.r	.	0.r	.	1cc	-ſi-
.	.	.	.	2cc\	-kut
=216-	=216-	=216-	=216-	=216-	=216-
.	.	.	.	2a\	e-
.	.	.	.	2b-\	-la-
.	.	.	.	2g/	-te
=217-	=217-	=217-	=217-	=217-	=217-
1.r	.	1.r	.	2dd\	pal-
.	.	.	.	1cc	-ma-
=218||-	=218||-	=218||-	=218||-	=218||-	=218||-
*M2/2	*	*M2/2	*	*M2/2	*
*met(C|)	*	*met(C|)	*	*met(C|)	*
1r	.	1r	.	1b-	-rum
=219-	=219-	=219-	=219-	=219-	=219-
2B-/	ni-	2fny\	ni-	2b-\	ni-
2f\	-grae	2c/	-grae	2a\	-gre
=220-	=220-	=220-	=220-	=220-	=220-
2c/	qua-	2g\	qua-	2cc\	qua-
!	!	!	!	!LO:N:acc=#	!
!	!	!	!	!LO:TX:b:t=P:problem:# below	!
2g\	-si	2g\	-si	2bn\	-ſi-
=221-	=221-	=221-	=221-	=221-	=221-
0c	cor-	0g	cor-	0cc	kor-
=222-	=222-	=222-	=222-	=222-	=222-
.	.	.	.	.	.
=223-	=223-	=223-	=223-	=223-	=223-
0g;;	-uus	0d;;	-uus	0b-y;;	-bus;
!	!	!LO:PB:g=original	!	!	!
=224||-	=224||-	=224||-	=224||-	=224||-	=224||-
00r	.	00r	.	2.b-\	Qua-
.	.	.	.	4b-\	-lis
=225-	=225-	=225-	=225-	=225-	=225-
.	.	.	.	2b-\	-eſt
.	.	.	.	2b-\	di-
!	!	!	!	!LO:SIC:v:t=custos cc	!
!	!	!	!	!LO:LB:g=original	!
=226-	=226-	=226-	=226-	=226-	=226-
.	.	.	.	2cc\	-lek-
.	.	.	.	2dd\	-tuſ
=227-	=227-	=227-	=227-	=227-	=227-
.	.	.	.	2g/	tu-
.	.	.	.	2b-\	-uſ
=228-	=228-	=228-	=228-	=228-	=228-
0r	.	0r	.	2a\	ex
.	.	.	.	2dd\	di-
=229-	=229-	=229-	=229-	=229-	=229-
.	.	.	.	1cc	-lek-
=230-	=230-	=230-	=230-	=230-	=230-
1r	.	1r	.	1b-	-to
=231-	=231-	=231-	=231-	=231-	=231-
2g\	O	2g\	O	0r	.
2f\	pul-	2a\	pul-	.	.
=232-	=232-	=232-	=232-	=232-	=232-
2.B-/	-cher-	2.f\	-che-	.	.
4B-/	-ri-	4f\	-ri-	.	.
=233-	=233-	=233-	=233-	=233-	=233-
1B-	-ma	1f	-ma	1r	.
=234-	=234-	=234-	=234-	=234-	=234-
0r	.	0r	.	2b-\	O
.	.	.	.	2cc\	pul-
=235-	=235-	=235-	=235-	=235-	=235-
.	.	.	.	2.dd\	-che-
.	.	.	.	4dd\	-ri-
=236-	=236-	=236-	=236-	=236-	=236-
1r	.	1r	.	1dd	-ma
=237-	=237-	=237-	=237-	=237-	=237-
2g\	O	2g\	O	0r	.
2f\	pul-	2a\	Pul-	.	.
=238-	=238-	=238-	=238-	=238-	=238-
2.B-/	-cher-	2.f\	-che-	.	.
4B-/	-ri-	4f\	-ri-	.	.
=239-	=239-	=239-	=239-	=239-	=239-
1B-	-ma	1f	-ma	1r	.
=240-	=240-	=240-	=240-	=240-	=240-
00r	.	00r	.	2b-\	O
.	.	.	.	2cc\	pul-
=241-	=241-	=241-	=241-	=241-	=241-
.	.	.	.	2.dd\	-cher-
.	.	.	.	4dd\	-ri-
=242-	=242-	=242-	=242-	=242-	=242-
.	.	.	.	1dd	-ma
=243-	=243-	=243-	=243-	=243-	=243-
.	.	.	.	2b-\	mu-
.	.	.	.	2.b-\	-li-
=244-	=244-	=244-	=244-	=244-	=244-
0r	.	0r	.	.	.
.	.	.	.	8a\L	.
.	.	.	.	8g\J	.
.	.	.	.	2a\	-e-
=245-	=245-	=245-	=245-	=245-	=245-
!	!	!	!	!LO:SIC:v:l:t=custos słowny quia	!
.	.	.	.	1b-	-rum
!LO:SIC:v:t=custos g	!	!	!	!LO:SIC:v:t=custos b-	!
!LO:LB:g=original	!	!	!	!LO:PB:g=original	!
=246||-	=246||-	=246||-	=246||-	=246||-	=246||-
*M3/2	*	*M3/2	*	*M3/2	*
1g	qui-	1d	qui-	1b-	qui-
2c/	-a	2g\	-a	2g/	-a
=247-	=247-	=247-	=247-	=247-	=247-
1g	sic	1d	sic	1g	sic
2d\	ad-	2d/	ad-	2a\	ad-
=248-	=248-	=248-	=248-	=248-	=248-
1G	-iu-	1g	-iu-	1b-	-iu-
2B-/	-ra-	2d/	-ra-	2b-\	-raſ-
!	!	!LO:SIC:v:t=custos f	!	!	!
!	!	!LO:LB:g=original	!	!	!
=249||-	=249||-	=249||-	=249||-	=249||-	=249||-
*M2/2	*	*M2/2	*	*M2/2	*
*met(C|)	*	*met(C|)	*	*met(C|)	*
1f	-ſti	1f	-ſti	1a	-ti
=250-	=250-	=250-	=250-	=250-	=250-
0B-;;	nos	0d;;	nos	0b-;;	nos
=251-	=251-	=251-	=251-	=251-	=251-
.	.	.	.	.	.
=252||-	=252||-	=252||-	=252||-	=252||-	=252||-
*M2/2	*	*M2/2	*	*M2/2	*
*met(C|)	*	*met(C|)	*	*met(C|)	*
1G	Di-	1g	Di-	00r	.
=253-	=253-	=253-	=253-	=253-	=253-
2c/	-le-	2g\	-le-	.	.
2B-/	-ctus	2d/	-ctus	.	.
=254-	=254-	=254-	=254-	=254-	=254-
1A	me-	2.e\	me-	.	.
.	.	4f\	.	.	.
=255-	=255-	=255-	=255-	=255-	=255-
1G	-us	1g	-us	.	.
=256-	=256-	=256-	=256-	=256-	=256-
00r	.	00r	.	2.b-\	Can-
.	.	.	.	4b-\	-di-
=257-	=257-	=257-	=257-	=257-	=257-
.	.	.	.	2b-\	-dus
.	.	.	.	2b-\	et
=258-	=258-	=258-	=258-	=258-	=258-
.	.	.	.	2a\	ru-
.	.	.	.	2.b-\	-bi-
=259-	=259-	=259-	=259-	=259-	=259-
.	.	.	.	8a\L	.
.	.	.	.	8g\J	.
.	.	.	.	2a\	-cun-
=260-	=260-	=260-	=260-	=260-	=260-
2r	.	2r	.	2b-\	-dus:
2G/	di-	2g\	di-	2r	.
=261-	=261-	=261-	=261-	=261-	=261-
2c/	-le-	2g\	-le-	0r	.
!LO:N:acc=#	!	!	!	!	!
!LO:TX:b:t=P:problem:# below	!	!	!	!	!
2Bn/	-ctus	2g\	-ctu[s]	.	.
=262-	=262-	=262-	=262-	=262-	=262-
1c	me-	1g	m[e]-	.	.
=263-	=263-	=263-	=263-	=263-	=263-
1G	-us	1g	-us	1r	.
=264-	=264-	=264-	=264-	=264-	=264-
00r	.	00r	.	2.dd\	Can-
.	.	.	.	4dd\	-di-
=265-	=265-	=265-	=265-	=265-	=265-
.	.	.	.	2dd\	-dus
.	.	.	.	2dd\	et
!	!	!	!	!LO:SIC:v:t=custos b-	!
!	!	!	!	!LO:LB:g=original	!
=266-	=266-	=266-	=266-	=266-	=266-
.	.	.	.	2b-\	ru-
.	.	.	.	2dd\	-bi-
=267-	=267-	=267-	=267-	=267-	=267-
.	.	.	.	1cc	-cun-
=268-	=268-	=268-	=268-	=268-	=268-
0r	.	0r	.	2dd\	-dus
.	.	.	.	2r	.
=269-	=269-	=269-	=269-	=269-	=269-
.	.	.	.	1r	.
=270-	=270-	=270-	=270-	=270-	=270-
2r	.	2r	.	2r	.
2B-y/	ex	2d/	ex	2dd\	ex
=271-	=271-	=271-	=271-	=271-	=271-
2.f\	mil-	2.f\	mil-	2.cc\	mil-
!LO:SIC:v:t=custos f	!	!	!	!	!
!LO:PB:g=original	!	!	!	!	!
4f\	-li-	4f\	-li-	4cc\	-li-
=272-	=272-	=272-	=272-	=272-	=272-
2B-/	-bus	2d/	-bus	2dd\	-bus,
!	!	!LO:SIC:v:t=custos g	!	!	!
!	!	!LO:LB:g=original	!	!	!
2r	.	2r	.	2r	.
=273-	=273-	=273-	=273-	=273-	=273-
1r	.	1r	.	1r	.
=274-	=274-	=274-	=274-	=274-	=274-
2r	.	2r	.	2r	.
2g\	ex	2g\	ex	2b-\	ex
=275-	=275-	=275-	=275-	=275-	=275-
2.c/	mil-	2.g\	mil-	2.cc\	mil-
4c/	-li-	4g\	-li-	4cc\	-li-
=276-	=276-	=276-	=276-	=276-	=276-
2g\	-bus	2g\	-bus	2b-\	-bus
2B-/	e-	2d/	e-	2b-\	e-
=277-	=277-	=277-	=277-	=277-	=277-
4f\	-le-	2.f\	-lec-	1cc	-lec-
4e\	.	.	.	.	.
4d\	.	.	.	.	.
4c/	.	4f\	-tus	.	.
=278-	=278-	=278-	=278-	=278-	=278-
2B-/	-ctus	2f\	ex	2b-\	-tus
2B-/	ex	2d/	mi-	2b-\	ex
=279-	=279-	=279-	=279-	=279-	=279-
2.F/	mil-	2.f\	-li-	2.cc\	mil-
4F/	-li-	4f\	-bus	4cc\	-li-
=280-	=280-	=280-	=280-	=280-	=280-
2B-/	-bus	2f\	ex	2b-\	-bus
2f\	ex	2c/	mil-	2a\	ex
=281-	=281-	=281-	=281-	=281-	=281-
1.c	mil-	1.g	-li-	1.g	mil-
=282-	=282-	=282-	=282-	=282-	=282-
.	.	.	.	.	.
2c/	-li-	2g\	-bus	2cc\	-li-
=283-	=283-	=283-	=283-	=283-	=283-
!	!	!	!	!LO:N:acc=#	!
0g;;	-bus	0d;;	.	0bn;;	-bus
!LO:LB:g=original	!	!	!	!	!
=284||-	=284||-	=284||-	=284||-	=284||-	=284||-
00r	.	00r	.	2.b-\	Qua-
.	.	.	.	4b-\	-lis
=285-	=285-	=285-	=285-	=285-	=285-
.	.	.	.	2a\	-eſt
.	.	.	.	2a\	di-
=286-	=286-	=286-	=286-	=286-	=286-
.	.	.	.	2cc\	-lec-
.	.	.	.	2dd\	-tus
=287-	=287-	=287-	=287-	=287-	=287-
.	.	.	.	2g/	tu-
.	.	.	.	2b-\	-us
=288-	=288-	=288-	=288-	=288-	=288-
0r	.	0r	.	2cc\	ex
.	.	.	.	2dd\	di-
=289-	=289-	=289-	=289-	=289-	=289-
.	.	.	.	2.b-\	-lec-
.	.	.	.	4cc\	-to
=290-	=290-	=290-	=290-	=290-	=290-
1r	.	1r	.	1dd	.
=291||-	=291||-	=291||-	=291||-	=291||-	=291||-
2.G/	Qua-	2.g\	Qua-	00r	.
!	!	!LO:SIC:v:t=custos g	!	!	!
!	!	!LO:LB:g=original	!	!	!
4G/	-lis	4g\	-lis	.	.
=292-	=292-	=292-	=292-	=292-	=292-
2G/	est	2g\	-eſt	.	.
2B-/	di-	2f\	di-	.	.
=293-	=293-	=293-	=293-	=293-	=293-
2e-X\	-le-	2g\	-le-	.	.
2B-/	-ctus	2d/	-ctus	.	.
=294-	=294-	=294-	=294-	=294-	=294-
2c/	tu-	2g\	tu-	.	.
2G/	-us	2g\	-us	.	.
=295-	=295-	=295-	=295-	=295-	=295-
2F/	ex	2a\	ex	0r	.
2B-/	di-	2b-\	di-	.	.
=296-	=296-	=296-	=296-	=296-	=296-
1c	-lec-	1g	-lec-	.	.
=297-	=297-	=297-	=297-	=297-	=297-
1G	-to	1g	-to	1r	.
=298-	=298-	=298-	=298-	=298-	=298-
0r	.	0r	.	2b-\	O
.	.	.	.	2cc\	pul-
=299-	=299-	=299-	=299-	=299-	=299-
.	.	.	.	2.dd\	-cher-
.	.	.	.	4dd\	-ri-
=300-	=300-	=300-	=300-	=300-	=300-
1r	.	1r	.	1dd	-ma
=301-	=301-	=301-	=301-	=301-	=301-
2g\	O	2g\	O	0r	.
2f\	pul-	2a\	pul-	.	.
=302-	=302-	=302-	=302-	=302-	=302-
2.B-/	-cher-	2.f\	-che-	.	.
4B-/	-ri-	4f\	-ri-	.	.
=303-	=303-	=303-	=303-	=303-	=303-
1B-	-ma	1f	-ma	1r	.
=304-	=304-	=304-	=304-	=304-	=304-
00r	.	00r	.	2b-\	O
.	.	.	.	2cc\	pul-
=305-	=305-	=305-	=305-	=305-	=305-
.	.	.	.	2.dd\	-cher-
.	.	.	.	4dd\	-ri-
=306-	=306-	=306-	=306-	=306-	=306-
.	.	.	.	1dd	-ma
=307-	=307-	=307-	=307-	=307-	=307-
.	.	.	.	2b-\	mu-
.	.	.	.	2.b-\	-li-
=308-	=308-	=308-	=308-	=308-	=308-
0r	.	0r	.	.	.
.	.	.	.	8a\L	.
.	.	.	.	8g\J	.
!	!	!	!	!LO:SIC:v:t=custos a	!
!	!	!	!	!LO:LB:g=original	!
.	.	.	.	2a\	-e-
=309-	=309-	=309-	=309-	=309-	=309-
.	.	.	.	1b-	-rum
=310-	=310-	=310-	=310-	=310-	=310-
2G/	O	4d/	o	00r	.
.	.	4e/	.	.	.
2F/	pul-	2f\	pul-	.	.
=311-	=311-	=311-	=311-	=311-	=311-
2.B-/	-cher-	2.f\	-cher-	.	.
4B-/	-ri-	4f\	-ri-	.	.
!	!	!LO:SIC:v:t=custos f	!	!	!
!	!	!LO:LB:g=original	!	!	!
=312-	=312-	=312-	=312-	=312-	=312-
1B-	-ma	1f	-ma	.	.
!LO:SIC:v:t=custos c	!	!	!	!	!
!LO:LB:g=original	!	!	!	!	!
=313-	=313-	=313-	=313-	=313-	=313-
2.c/	mu-	2c/	mu-	.	.
.	.	2.g\	-li-	.	.
4c/	-li-	.	.	.	.
=314-	=314-	=314-	=314-	=314-	=314-
1d	-e-	.	.	0r	.
.	.	8f\L	.	.	.
.	.	8e\J	.	.	.
!	!	!LO:TX:b:t=P:problem:# below	!	!	!
.	.	2f#X\	-e-	.	.
=315-	=315-	=315-	=315-	=315-	=315-
1G	-rum	1g	-rum	.	.
=316||-	=316||-	=316||-	=316||-	=316||-	=316||-
*M3/2	*	*M3/2	*	*M3/2	*
1.r	.	1.r	.	1b-	Qui-
.	.	.	.	2a,>\	-a
=317-	=317-	=317-	=317-	=317-	=317-
2g\	Qui-	2g\	Qui-	2b-\	qui-
2g\	-a	2d/	-a	2b-\	-a
2d\	sic	2d/	sic	2a,>\	sic
=318-	=318-	=318-	=318-	=318-	=318-
1.r	.	1.r	.	1cc	ad-
.	.	.	.	2cc\	-iu-
=319-	=319-	=319-	=319-	=319-	=319-
1f	ad-	1fny	ad-	1a	-raſ-
2eny\	-iu-	2g\	-iu-	2cc,>\	-ti
=320-	=320-	=320-	=320-	=320-	=320-
1f	-raſ-	1f	-raſ-	1cc	ad-
2c/	-ti	2g\	-ti	2g/	-iu-
=321-	=321-	=321-	=321-	=321-	=321-
1f	ad-	1f	ad-	1a	-raſ-
2e\	-iu-	2g\	-iu-	2cc,>\	-ti
=322-	=322-	=322-	=322-	=322-	=322-
1f	-raſ-	1f	-raſ-	1cc	ad-
2c/	-ti	2g\	-ti	2cc\	-iu-
=323-	=323-	=323-	=323-	=323-	=323-
1.r	.	1.r	.	1cc	-raſ-
.	.	.	.	2cc\	-ti
=324||-	=324||-	=324||-	=324||-	=324||-	=324||-
*M2/2	*	*M2/2	*	*M2/2	*
*met(C|)	*	*met(C|)	*	*met(C|)	*
4F/	ad-	2f\	ad-	1cc	nos
4G/	.	.	.	.	.
4A/	.	2c/	-iu-	.	.
4B-/	.	.	.	.	.
=325-	=325-	=325-	=325-	=325-	=325-
1c	-iu-	2c/	-ras-	2cc\	ad-
!	!	!LO:SIC:v:t=custos g	!	!	!
!	!	!LO:LB:g=original	!	!	!
.	.	2g\	-ti	2g/	-iu-
=326-	=326-	=326-	=326-	=326-	=326-
4G/	-ra-	2d/	[[nos]]	1.dd	-ra-
4A/	.	.	.	.	.
4B-/	.	2d/	ad-	.	.
4c/	.	.	.	.	.
!LO:SIC:v:t=custos d	!	!	!	!	!
!LO:LB:g=original	!	!	!	!	!
=327-	=327-	=327-	=327-	=327-	=327-
1.d	.	2d/	-iu-	.	.
.	.	2d/	-r[a]ſ-	4cc\	-ſti
.	.	.	.	4b-\	.
=328-	=328-	=328-	=328-	=328-	=328-
.	.	1d	-ti	1a	.
2d\	-ſti	.	.	.	.
=329-	=329-	=329-	=329-	=329-	=329-
!	!	!	!	!LO:N:acc=#	!
0g;;	nos	0d;;	nos	0bn;;	nos;
=-	=-	=-	=-	=-	=-
*-	*-	*-	*-	*-	*-
!!!system-decoration: [(g1)][(g2)]
!!!AIN: 3 empty
!!!ENC: Andrzej Gręziak
!!!END: 2021-10-19
!!!EED: Jędrzej Mróz
!!!ESR: 2021-10-25
!!!RDF**kern: > = above
!!!RDF**kern: < = below
